X: 1
T:the Blue Ribbon
M:2/4
L:1/8
O:France
R:Bourr\'ee
K:C
g2ec | B>cde | f2dB | c>def | g2ec | B>cde | f2dB | c2c2 ::
B>dBd | c>ece | d>fdf | e2c2 | B>dBd | cece |1 gfef | g4 :|2 gfed | c4 |]
